X:1
T:Milwaukee (Prothero), CM
T:Milwaukee (Prothero), CM
T:Daniel William Prothero (1866-1934)
T:Public Domain Courtesy of the Cyber Hymnal™
C:Daniel William Prothero (1866-1934)
Z:Public Domain
Z:Courtesy of the Cyber Hymnal™
%%score ( 1 2 ) ( 3 4 )
L:1/8
M:3/4
K:A
V:1 treble 
V:2 treble 
V:3 bass 
V:4 bass 
V:1
 [CE]2 | (E2 c2) [CB]2 | A4 [DA]2 | ([CA]2 [EG]2) [DF]2 | [CE]4 [CE]2 | ([DF]2 [EG]2) [EA]2 | %6
 d4 [Ec]2 | [DB]4 [FB]2 | (B2 c2) [EB]2 | e4 [=GA]2 | (A2 B2) [Fc]2 | [Fd]4 [Fc]2 | (c2 B2) F2 | %13
 [EA]4 [EG]2 | [EA]4 |] %15
V:2
 x2 | C4 x2 | (C2 E2) x2 | x6 | x6 | x6 | (D2 F2) x2 | x6 | G4 x2 | E2 A2 x2 | F4 x2 | x6 | F4 F2 | %13
 x6 | x4 |] %15
V:3
 [A,,E,]2 | [A,,E,]4 [A,,E,]2 | (E,2 C2) [A,,B,]2 | A,4 [D,A,]2 | [A,,A,]4 [A,,A,]2 | %5
 (A,2 B,2) [C,A,]2 | [B,,B,]4 [F,^A,]2 | [B,,B,]4 [B,,D]2 | (D2 E2) [D,G,]2 | [C,A,]4 [C,E]2 | %10
 (DC B,2) [C,^A,]2 | [B,,B,]4 [^A,,E]2 | (E2 D2) (A,B,) | (C2 B,C) [E,D]2 | [A,,C]4 |] %15
V:4
 x2 | x6 | A,,4 x2 | (A,,2 C,2) x2 | x6 | D,4 x2 | x6 | x6 | E,4 x2 | x6 | D,4 x2 | x6 | B,,4 D,2 | %13
 E,4 x2 | x4 |] %15

